dist/svgs/core-ui-icons/free/cil-casino.svg

<svg xmlns="http://www.w3.org/2000/svg" viewBox="0 0 512 512"><path d="M495.24 267.592L445.066 41.083A32.038 32.038 0 00406.9 16.76L180.393 66.934a32 32 0 00-24.322 38.166l21.021 94.9H48a32.036 32.036 0 00-32 32v232a32.036 32.036 0 0032 32h232a32.036 32.036 0 0032-32V340.957l158.917-35.2a32.038 32.038 0 0024.323-38.165zM280 464H48V232h136.181l22.063 99.606a32.031 32.031 0 0031.18 25.092 32.3 32.3 0 006.984-.769l35.6-7.886L280.02 464zm184-189.487l-226.513 50.173-50.173-226.51L413.824 48l50.193 226.505z"/><path d="M80 264h40v40H80zm0 128h40v40H80zm128 0h40v40h-40zm-64-64h40v40h-40zm81.456-205.433l39.054-8.644 8.644 39.055-39.054 8.644zm152.672 97.223l39.054-8.65 8.65 39.054-39.054 8.65zm-76.324-48.649l39.053-8.65 8.65 39.053-39.052 8.65z"/></svg>

<svg xmlns="http://www.w3.org/2000/svg" viewBox="0 0 512 512">
  <path fill="var(--ci-primary-color, currentColor)" d="M495.24,267.592,445.066,41.083A32.038,32.038,0,0,0,406.9,16.76L180.393,66.934A32,32,0,0,0,156.071,105.1L177.092,200H48a32.036,32.036,0,0,0-32,32V464a32.036,32.036,0,0,0,32,32H280a32.036,32.036,0,0,0,32-32V340.957l158.917-35.2A32.038,32.038,0,0,0,495.24,267.592ZM280,464H48V232H184.181l22.063,99.606a32.031,32.031,0,0,0,31.18,25.092,32.3,32.3,0,0,0,6.984-.769l35.6-7.886L280.02,464ZM464,274.513,237.487,324.686,187.314,98.176,413.824,48l50.193,226.505Z" class="ci-primary"/>
  <rect width="40" height="40" x="80" y="264" fill="var(--ci-primary-color, currentColor)" class="ci-primary"/>
  <rect width="40" height="40" x="80" y="392" fill="var(--ci-primary-color, currentColor)" class="ci-primary"/>
  <rect width="40" height="40" x="208" y="392" fill="var(--ci-primary-color, currentColor)" class="ci-primary"/>
  <rect width="40" height="40" x="144" y="328" fill="var(--ci-primary-color, currentColor)" class="ci-primary"/>
  <rect width="40" height="40" x="229.329" y="117.7" fill="var(--ci-primary-color, currentColor)" class="ci-primary" transform="rotate(-12.48 249.647 137.846)"/>
  <rect width="40" height="40" x="381.981" y="214.989" fill="var(--ci-primary-color, currentColor)" class="ci-primary" transform="rotate(-12.489 401.996 234.995)"/>
  <rect width="40" height="40" x="305.655" y="166.345" fill="var(--ci-primary-color, currentColor)" class="ci-primary" transform="rotate(-12.49 325.645 186.34)"/>
</svg>
